X:185
T:Queens March
O:No 185 William Clarke of Feltwell
M:4/4
L:1/8
N:In m.s. bar B2 is |fdfd| i.e.quavers
K:D
d4A4|F2D>DF2A2|d2d>de2e>f|gfed dcBA|d2d>dA2A>A|F2D>DF2A2|d2f>da2g>f|e2e>ee2z2::g3e dcBA|f2d2f2d2|g3e dcBA|a2f2a2f2|d2d>d efge|dcBAa3g|f2f>ge2e>f|d2d>dd2z2:|

